X: 18995
T: Innisfal
R: hornpipe
M: 4/4
K: Gmajor
d/B/g/f/ e/d/c/B/|c/A/a/g/ f/e/d/c/|B/d/B/d/ G/B/G/B/|A/B/c/A/ G/F/E/D/|
d/B/g/f/ e/d/c/B/|c/A/a/g/ f/e/d/c/|B/d/G/B/ c/A/G/F/|GGGz:|
|:F/A/G/B/ A/F/E/D/|F/A/G/B/ A/F/E/D/|B/d/c/e/ d/B/A/G/|B/d/c/e/ d/B/A/G/|
c/B/c/d/ e/c/B/A/|B/A/B/c/ d/e/f/g/|A/B/c/A/ G/F/E/D/|GBGz:|

